X: 43438
T: Yakity
R: jig
M: 6/8
K: Gmajor
|:BdB d2B|deg BAG|ABA AGA|ABd ~e2d|
BdB d2B|deg BAG|~A2G Bed|1 G3 G3:|2 G3 GBd||
~e3 edB|deg BAG|ABA AGA|~B2A GBd|
~e3 edB|deg ega|a2a aga|~b2a gfd|
~e3 edB|deg BAG|ABA AGA|~B2A GED|
EDE G2D|DEG A2d|d2D ABd|~B2A G3||

